X: 5
T: Toss The Feathers
Z: ceolachan
S: https://thesession.org/tunes/138#setting12757
R: reel
M: 4/4
L: 1/8
K: Dmix
|: D2 ED ADED | ABcA GEDE | D2 ED ADED | AddB cAGED2 DA D2 ED | ABcA GE E2 | cABG A2 AB |1 cded cAGE :|Ad d2 ad d2 | Ad d2 ed^cd | eaag a2 ge | a2 ag agedefge a2 fg | efed dcAB | cABG A2 AB |1 cded cAGB :|
